!!!COM: Palestrina, Giovanni Perluigi da
!!!OPR: Missa In duplicibus minoribus (II)
!!!OMD: Sanctus rpt
!!!OTL: First Section
**kern	**kern	**kern	**kern	**kern
*Ibass	*Itenor	*Itenor	*Icalto	*Icant
!Bassus	!Tenor 2	!Tenor 1	!Altus	!Cantus
*clefF4	*clefGv2	*clefGv2	*clefG2	*clefG2
*k[]	*k[]	*k[]	*k[]	*k[]
*E:phr	*E:phr	*E:phr	*E:phr	*E:phr
*M4/2	*M4/2	*M4/2	*M4/2	*M4/2
=1	=1	=1	=1	=1
1E	0r	0r	0r	0r
1G	.	.	.	.
=2	=2	=2	=2	=2
1.A	0r	0r	0r	1r
.	.	.	.	1e
2G	.	.	.	.
=3	=3	=3	=3	=3
2E	1r	0r	1B	1g
2G	.	.	.	.
1F	1A	.	1d	[1a
=4	=4	=4	=4	=4
1E	1B	0r	0e	2a]
.	.	.	.	2g
1C	2.c	.	.	2e
.	.	.	.	2g
.	4B	.	.	.
=5	=5	=5	=5	=5
1D	4A	0r	1d	1f
.	4G	.	.	.
.	1A	.	.	.
1E	.	.	1B	1e
.	2G#	.	.	.
=6	=6	=6	=6	=6
1D	0A	1r	1d	1f
1AA	.	1E	1c	[1e
=7	=7	=7	=7	=7
1E	2r	1G	1B	2e]
.	1E	.	.	2b
2.AA	.	[1A	2e	[1cc
.	2F	.	4c	.
4BB	.	.	4d	.
=8	=8	=8	=8	=8
4C	2.E	2A]	4e	2cc]
4D	.	.	4f	.
1E	.	2G	2.g	4b
.	4F	.	.	4a
.	1G	2E	.	2b
.	.	.	4f	.
2C	.	2G	[2e	2cc
=9	=9	=9	=9	=9
2.D	1r	0F	2e]	0a
.	.	.	4d	.
4E	.	.	4c	.
4F	1A	.	1d	.
4G	.	.	.	.
[2A	.	.	.	.
=10	=10	=10	=10	=10
2A]	1B	1E	1e	1r
2G#	.	.	.	.
1A	1c	2r	2r	1e
.	.	[2A	[2c	.
=11	=11	=11	=11	=11
0r	1A	2A]	2c]	1f
.	.	2F	2A	.
.	1r	2G	2B	1e
.	.	2A	2c	.
=12	=12	=12	=12	=12
0r	0r	2D	2d	1d
.	.	2.d	2.f	.
.	.	.	.	1f
.	.	4c	4e	.
.	.	2A	2c	.
=13	=13	=13	=13	=13
0r	1r	2B	2d	1g
.	.	2c	2e	.
.	2r	[1F	1f	[1a
.	[2c	.	.	.
=14	=14	=14	=14	=14
0r	2c]	1F]	2r	1a]
.	2A	.	2f	.
.	2B	1r	2d	1g
.	2c	.	2e	.
=15	=15	=15	=15	=15
0r	2F	2r	2d	1f
.	2.A	4F	2.c	.
.	.	4G	.	.
.	.	4A	.	1e
.	4G	4B	4B	.
.	2E	[2c	2G	.
=16	=16	=16	=16	=16
0r	2F	2c]	2A	1d
.	2G	2.B	2G	.
.	2D	.	1A	1d
.	.	4A	.	.
.	2F	[2A	.	.
=17	=17	=17	=17	=17
1r	1E	2A]	1B	1e
.	.	4G#	.	.
.	.	4F#	.	.
[1E	[1e	2.G#	1B	1r
.	.	4F#	.	.
=18	=18	=18	=18	=18
2E]	1e]	2E	1c	0r
2C	.	1A	.	.
2D	2r	.	1B	.
2E	2e	2G#	.	.
=19	=19	=19	=19	=19
2AA	2e	1A	1A	1r
2.A	2.c	.	.	.
.	.	1r	1c	2r
4G	4B	.	.	.
2E	2G	.	.	[2cc
=20	=20	=20	=20	=20
2F	2A	1r	1d	2cc]
2G	2B	.	.	2b
[1C	1G	2r	[1e	2.cc
.	.	[2G	.	.
.	.	.	.	4b
=21	=21	=21	=21	=21
1C]	2r	2G]	1e]	1g
.	2c	2E	.	.
1r	2A	2F	1d	2a
.	2B	2G	.	[2g
=22	=22	=22	=22	=22
0r	1e	1C	1c	2g]
.	.	.	.	4f
.	.	.	.	4e
.	2d	2D	1B	2f
.	2G	2E	.	[2e
=23	=23	=23	=23	=23
1r	4c	1.F	1A	2e]
.	4B	.	.	.
.	4A	.	.	4d
.	4G	.	.	4c
2r	2A	.	1A	2d
[2A	2D	2F	.	2d
=24	=24	=24	=24	=24
2A]	1r	1E	1B	1e
2G#	.	.	.	.
1A	1c	2r	[1e	1r
.	.	[2A	.	.
=25	=25	=25	=25	=25
1E	2B	2A]	1e]	1b
.	1B	2G#	.	.
1AA	.	1A	1e	1cc
.	[2A	.	.	.
=26	=26	=26	=26	=26
1E	2A]	2B	[0e	1b
.	2G#	2B	.	.
1AA	2A	2c	.	1a
.	2A	2c	.	.
=27	=27	=27	=27	=27
[0E	[0G#	[0B	1e_	[0b
.	.	.	1e_	.
=28	=28	=28	=28	=28
0E]	0G#]	0B]	0e]	0b]
*-	*-	*-	*-	*-
!!!CDT: 1525/^1526/-1594/2/2
!!!OCY: Italia
!!!AGN: Mass (Paraphrase)
!!!AST: renaissance, vocal
!!!ASW: Gregorian Mass
!!!PWK: Masses, Book Mantuan I
!!!RNB: Cadence finals: A
!!!YOR: Le Opere Complete, v. 18, p. 1
!!!YOO: Rome, Italy: Fratelli Scalera
!!!END: 1992//
!!!EED: John Miller
!!!YEC: Copyright 2000, John Miller
!!!YEN: United States of America
!!!YEM: Rights to all derivative electronic formats reserved.
!!!YEM: Refer to licensing agreement for further details.
!!!YEM: This file must be accompanied by the licensing agreement.
!!!YEM: A copy of the licensing agreement may be found at http://www.music-cog.ohio-state.edu/HumdrumDatabases/Palestrina/license.txt
!!!EMD: converted to Humdrum by Bret Aarden
